!!!COM: Corelli, Arcangelo
!!!OTL: 
!!!ONM: Opus 5, No. 4
!!!OMV: 4
!!!CDT: 1653/2/17/-1713/1/8/
!!!OCY: Italia
**kern	**kern
*clefC	*clefG
*k[b-]	*k[b-]
*d:	*d:
*M4/4	*M4/4
=1	=1
8d	4.a
8c	.
8B-	.
8A	8a
8B-	4.dd
8A	.
8G	.
8F	8dd
=2	=2
8E	4.gg
8D	.
8C#	.
8AA	16aa
.	16gg
4D	8ff
.	8dd
8d	8ff
8d	8bb-
=3	=3
8d	4ee
16c	.
16B-	.
8c	8aa
8C	8a
2BB-	8dd
.	16ee
.	16ff
.	8.ee
.	16dd
=4	=4
2AA	2cc#
2r	2r
=5	=5
8AA	4.aa
8BB	.
8C#	.
8AA	8gg
8D	8ff
8E	8dd
8F	8r
8D	8bb-
=6	=6
8E	8gg
8C	8ee
8D	8r
8E	8ccc
8F	8aa
8f	8ff
8e	8r
8E	8ccc
=7	=7
8D	4bb-
8d	.
8c	8r
8C	8aa
8BB-	4gg
8B-	.
8A	8r
8F	8ccc
=8	=8
8B-	16ddd
.	16ee
16A	16ff
16B-	16gg
8c	8.gg
8C	.
.	16ff
8F	4ff
8E	.
8D	[4aa
8C	.
=9	=9
8D	8aa]
8BB	32bb
.	32ccc
.	16ddd
8E	8.ccc
8EE	.
.	16bb
4AA	8ccc
.	8aa
8A	[4ccc
8G	.
=10	=10
8F#	8ccc]
8G	16bb-
.	16ccc
8C	4aa
8D	.
4GG	8gg
.	8aa
8G	[4bb-
8F	.
=11	=11
8E	8bb-]
8F	4aa
8BB	.
8C#	4gg
8D	.
8d	4ff
8F	.
8G	16ee
.	16dd
=12	=12
4.A	8cc#
.	8dd
.	4.ee
8G	.
4.F	.
.	16dd
.	16cc#
.	[4dd
16E	.
16D	.
=13	=13
8E	8dd]
8A	4cc
8D	.
8G	4b-
8C	.
8F	4a
8BB	.
8C#	[8g
=14	=14
4D	8g]
.	4f
4GG	.
.	16e
.	16d
8AA	8c#
16F	4d
16G	.
8A	.
8AA	8c#
=15	=15
8D	4.d
8G	.
8F#	.
8D	8dd
8r	8b-
8G	8g
8F#	8r
8D	8dd
=16	=16
8r	8b-
8G	8g
8F#	8r
8D	8dd
4GG	4b-
4AA	8a
.	8c#
=17	=17
2BB-	8d
.	16e
.	16f
.	8.e
.	16d
2AA	2c#
==	==
*-	*-
!!!RWG: This file only contains pitch and duration data.
!!!RWG: Transposing instruments are not transposed.
!!!RWG: Durations of rests and tied notes may be interpreted.
!!!RWG: Key is interpreted using the Humdrum key tool.
!!!SCA: 
!!!YOR: 
!!!AGN: violin
!!!AFT: stage1
!!!ENC: F. Bennion
!!!END: 1997/04/15
!!!AST: baroque
!!!YEC: Copyright 1994, Center for Computer Assisted Research in the Humanities
!!!YEM: Rights to all derivative electronic formats reserved.
!!!YEM: Refer to licensing agreement for further details.
!!!YEN: United States of America
!!!EED: W.B. Hewlett
!!!KEY: 104786354
!!!EMD: Converted from MuseData to Humdrum Aug 9, 1999, by Bret Aarden using muse2kern.
!!!VTS: 1644694443
